X:189
T: DUNKEL UMHUELLET DIE FLUR
N: F0331
O: Europa, Mitteleuropa, Deutschland
R: Jugend - Lied, Tageszeiten, Abend, religioes
M: 6/8
L: 1/16
K: G
 | d3ed2c2B2A2 | G6z6 |
A2A2A2B2B2^c2 | d6A4z2 |
B2B2B2c2c2c2 | d6e4z2 |
d3cB2A2B2A2 | G4z8

@@@ Tune index: 5620
